flaticon/holiday/owl.svg

<svg xmlns="http://www.w3.org/2000/svg" width="32" height="32" viewBox="0 0 24 24">
    <path d="M 16.601562 5.199219 C 15.054688 5.199219 13.800781 6.457031 13.800781 8 C 13.800781 9.542969 15.054688 10.800781 16.601562 10.800781 C 18.144531 10.800781 19.398438 9.542969 19.398438 8 C 19.398438 6.457031 18.144531 5.199219 16.601562 5.199219 Z M 16.601562 10 C 15.496094 10 14.601562 9.101562 14.601562 8 C 14.601562 6.898438 15.496094 6 16.601562 6 C 17.703125 6 18.601562 6.898438 18.601562 8 C 18.601562 9.101562 17.703125 10 16.601562 10 Z M 16.601562 10"/>
    <path d="M17.800781 8C17.800781 8.664062 17.261719 9.199219 16.601562 9.199219 15.9375 9.199219 15.398438 8.664062 15.398438 8 15.398438 7.335938 15.9375 6.800781 16.601562 6.800781 17.261719 6.800781 17.800781 7.335938 17.800781 8zM8.601562 10.800781C10.144531 10.800781 11.398438 9.542969 11.398438 8 11.398438 6.457031 10.144531 5.199219 8.601562 5.199219 7.054688 5.199219 5.800781 6.457031 5.800781 8 5.800781 9.542969 7.054688 10.800781 8.601562 10.800781zM8.601562 6C9.703125 6 10.601562 6.898438 10.601562 8 10.601562 9.101562 9.703125 10 8.601562 10 7.496094 10 6.601562 9.101562 6.601562 8 6.601562 6.898438 7.496094 6 8.601562 6zM8.601562 6"/>
    <path d="M 9.800781 8 C 9.800781 8.664062 9.261719 9.199219 8.601562 9.199219 C 7.9375 9.199219 7.398438 8.664062 7.398438 8 C 7.398438 7.335938 7.9375 6.800781 8.601562 6.800781 C 9.261719 6.800781 9.800781 7.335938 9.800781 8 Z M 9.800781 8"/>
    <path d="M 22.601562 20 L 19.949219 20 C 20.875 18.660156 21.398438 16.960938 21.398438 15.234375 C 21.421875 15.117188 21.652344 14.707031 21.816406 14.40625 C 22.171875 13.761719 22.425781 13.289062 22.511719 12.933594 C 22.511719 12.929688 22.511719 12.925781 22.515625 12.921875 C 22.527344 12.863281 22.539062 12.804688 22.542969 12.75 C 22.59375 12.152344 22.679688 11.550781 22.765625 10.984375 C 22.804688 10.722656 22.832031 10.460938 22.851562 10.199219 C 22.855469 10.128906 22.859375 10.0625 22.859375 9.992188 C 22.871094 9.785156 22.875 9.578125 22.871094 9.375 C 22.871094 9.3125 22.871094 9.25 22.871094 9.191406 C 22.851562 8.644531 22.789062 8.101562 22.683594 7.570312 C 22.679688 7.5625 22.679688 7.554688 22.675781 7.546875 C 22.625 7.28125 22.558594 7.019531 22.484375 6.761719 C 22.476562 6.742188 22.472656 6.722656 22.464844 6.707031 C 22.222656 5.890625 21.875 5.109375 21.433594 4.382812 C 21.429688 4.378906 21.425781 4.375 21.425781 4.371094 C 21.425781 4.371094 21.421875 4.371094 21.421875 4.371094 C 20.808594 3.367188 20.011719 2.46875 19.046875 1.730469 L 16.902344 0.0820312 C 16.773438 -0.0117188 16.601562 -0.0273438 16.460938 0.0507812 L 14.070312 1.390625 C 13.445312 1.742188 12.9375 2.257812 12.601562 2.871094 C 12.261719 2.257812 11.753906 1.742188 11.132812 1.394531 L 8.738281 0.0507812 C 8.597656 -0.0273438 8.425781 -0.015625 8.300781 0.0820312 L 6.15625 1.722656 C 5.191406 2.464844 4.394531 3.363281 3.777344 4.367188 C 3.773438 4.371094 3.773438 4.375 3.769531 4.378906 C 3.324219 5.105469 2.976562 5.886719 2.734375 6.703125 C 2.726562 6.722656 2.722656 6.738281 2.71875 6.757812 C 2.644531 7.015625 2.578125 7.277344 2.523438 7.542969 C 2.519531 7.550781 2.519531 7.558594 2.515625 7.566406 C 2.410156 8.097656 2.347656 8.640625 2.332031 9.1875 C 2.328125 9.25 2.328125 9.308594 2.328125 9.371094 C 2.324219 9.578125 2.328125 9.78125 2.339844 9.988281 C 2.34375 10.058594 2.34375 10.128906 2.347656 10.199219 C 2.367188 10.460938 2.394531 10.722656 2.433594 10.984375 C 2.519531 11.546875 2.605469 12.152344 2.65625 12.75 C 2.660156 12.800781 2.671875 12.859375 2.683594 12.917969 C 2.6875 12.929688 2.691406 12.941406 2.695312 12.953125 C 2.707031 13 2.71875 13.042969 2.734375 13.09375 C 2.878906 13.527344 3.195312 14.121094 3.5625 14.78125 C 3.648438 14.9375 3.746094 15.117188 3.800781 15.226562 C 3.804688 16.972656 4.328125 18.664062 5.25 20 L 0.199219 20 L 0.199219 20.800781 L 6.601562 20.800781 L 6.601562 21.199219 L 7.398438 21.199219 L 7.398438 20.800781 L 7.800781 20.800781 L 7.800781 21.199219 L 8.601562 21.199219 L 8.601562 20.800781 L 9 20.800781 L 9 21.199219 L 9.800781 21.199219 L 9.800781 20.800781 L 15.398438 20.800781 L 15.398438 21.199219 L 16.199219 21.199219 L 16.199219 20.800781 L 16.601562 20.800781 L 16.601562 21.199219 L 17.398438 21.199219 L 17.398438 20.800781 L 17.800781 20.800781 L 17.800781 21.199219 L 18.601562 21.199219 L 18.601562 20.800781 L 22.601562 20.800781 C 22.820312 20.800781 23 20.976562 23 21.199219 C 23 21.421875 22.820312 21.597656 22.601562 21.597656 L 0.199219 21.597656 L 0.199219 22.398438 L 7.832031 22.398438 C 9.578125 23.496094 11.519531 24 12.601562 24 C 13.679688 24 15.621094 23.496094 17.367188 22.398438 L 22.601562 22.398438 C 23.261719 22.398438 23.800781 21.859375 23.800781 21.199219 C 23.800781 20.539062 23.261719 20 22.601562 20 Z M 12.578125 20 C 11.753906 16.800781 9.753906 14.691406 6.621094 13.734375 C 5.230469 13.308594 4.253906 12.539062 3.722656 11.445312 C 2.773438 9.488281 3.480469 7.011719 3.707031 6.332031 C 3.773438 6.160156 3.835938 5.988281 3.910156 5.824219 C 3.914062 5.820312 3.914062 5.816406 3.914062 5.816406 C 4.015625 5.59375 4.125 5.371094 4.242188 5.15625 C 4.527344 5.433594 4.652344 5.835938 4.578125 6.226562 C 4.335938 6.769531 4.199219 7.367188 4.199219 8 C 4.199219 10.425781 6.175781 12.398438 8.601562 12.398438 C 9.359375 12.398438 10.074219 12.207031 10.699219 11.867188 L 12.316406 13.484375 C 12.394531 13.5625 12.496094 13.601562 12.601562 13.601562 C 12.703125 13.601562 12.804688 13.5625 12.882812 13.484375 L 14.5 11.867188 C 15.125 12.207031 15.839844 12.398438 16.601562 12.398438 C 19.027344 12.398438 21 10.425781 21 8 C 21 7.371094 20.863281 6.773438 20.625 6.230469 C 20.550781 5.835938 20.675781 5.4375 20.957031 5.160156 C 21.074219 5.375 21.183594 5.59375 21.285156 5.816406 C 21.289062 5.820312 21.289062 5.824219 21.292969 5.832031 C 21.367188 6 21.429688 6.167969 21.496094 6.339844 C 21.726562 7.03125 22.421875 9.488281 21.476562 11.445312 C 20.949219 12.539062 19.972656 13.308594 18.578125 13.734375 C 15.445312 14.691406 13.445312 16.800781 12.621094 20 Z M 5.265625 6.722656 C 5.289062 6.65625 5.304688 6.585938 5.324219 6.519531 C 5.890625 5.269531 7.144531 4.398438 8.601562 4.398438 C 10.585938 4.398438 12.199219 6.015625 12.199219 8 C 12.199219 8.472656 12.105469 8.925781 11.9375 9.339844 C 11.9375 9.339844 11.9375 9.339844 11.9375 9.34375 C 11.871094 9.507812 11.789062 9.667969 11.699219 9.820312 C 11.691406 9.835938 11.683594 9.847656 11.675781 9.863281 C 11.492188 10.164062 11.265625 10.4375 11.003906 10.671875 C 10.996094 10.679688 10.984375 10.6875 10.976562 10.695312 C 10.84375 10.816406 10.699219 10.925781 10.542969 11.023438 C 10.542969 11.027344 10.542969 11.027344 10.542969 11.027344 C 9.980469 11.386719 9.316406 11.601562 8.601562 11.601562 C 6.613281 11.601562 5 9.984375 5 8 C 5 7.546875 5.089844 7.113281 5.242188 6.714844 Z M 19.878906 6.523438 C 19.894531 6.589844 19.910156 6.65625 19.933594 6.722656 L 19.957031 6.710938 C 20.113281 7.113281 20.199219 7.546875 20.199219 8 C 20.199219 9.984375 18.585938 11.601562 16.601562 11.601562 C 15.882812 11.601562 15.21875 11.386719 14.65625 11.027344 C 14.5 10.925781 14.355469 10.816406 14.222656 10.695312 C 14.214844 10.6875 14.207031 10.679688 14.195312 10.671875 C 13.933594 10.4375 13.707031 10.164062 13.523438 9.863281 C 13.515625 9.847656 13.507812 9.835938 13.5 9.820312 C 13.410156 9.667969 13.328125 9.507812 13.261719 9.34375 C 13.261719 9.34375 13.261719 9.34375 13.261719 9.339844 C 13.09375 8.925781 13 8.476562 13 8 C 13 6.015625 14.613281 4.402344 16.597656 4.402344 C 18.058594 4.398438 19.3125 5.273438 19.878906 6.523438 Z M 11.742188 11.074219 C 11.75 11.066406 11.757812 11.054688 11.765625 11.046875 C 11.867188 10.941406 11.960938 10.832031 12.050781 10.71875 C 12.074219 10.691406 12.097656 10.660156 12.121094 10.628906 C 12.195312 10.53125 12.265625 10.429688 12.332031 10.324219 C 12.351562 10.292969 12.371094 10.261719 12.386719 10.226562 C 12.457031 10.109375 12.519531 9.992188 12.578125 9.867188 C 12.585938 9.851562 12.59375 9.839844 12.601562 9.828125 C 12.605469 9.839844 12.613281 9.855469 12.621094 9.867188 C 12.679688 9.992188 12.742188 10.109375 12.8125 10.226562 C 12.832031 10.261719 12.851562 10.292969 12.871094 10.320312 C 12.9375 10.429688 13.007812 10.53125 13.082031 10.628906 C 13.101562 10.660156 13.125 10.691406 13.148438 10.71875 C 13.238281 10.835938 13.335938 10.945312 13.4375 11.050781 C 13.441406 11.058594 13.449219 11.066406 13.457031 11.074219 C 13.574219 11.191406 13.695312 11.304688 13.824219 11.410156 L 12.601562 12.632812 L 11.375 11.410156 C 11.503906 11.304688 11.628906 11.191406 11.742188 11.074219 Z M 6.640625 2.359375 L 8.578125 0.878906 L 10.742188 2.089844 C 11.429688 2.476562 11.933594 3.117188 12.152344 3.871094 C 12.136719 3.925781 12.136719 3.972656 12.136719 3.992188 C 12.136719 4.054688 12.160156 4.367188 12.570312 4.398438 C 12.589844 4.402344 12.609375 4.402344 12.632812 4.398438 C 13.039062 4.367188 13.0625 4.054688 13.066406 3.992188 C 13.066406 3.972656 13.0625 3.925781 13.046875 3.871094 C 13.265625 3.117188 13.773438 2.472656 14.460938 2.089844 L 16.625 0.878906 L 18.5625 2.363281 C 19.34375 2.960938 20.003906 3.675781 20.539062 4.46875 C 20.292969 4.667969 20.109375 4.914062 19.984375 5.191406 C 19.175781 4.21875 17.960938 3.601562 16.601562 3.601562 C 14.824219 3.601562 13.292969 4.660156 12.601562 6.175781 C 11.90625 4.660156 10.375 3.601562 8.601562 3.601562 C 7.242188 3.601562 6.027344 4.21875 5.21875 5.1875 C 5.09375 4.910156 4.910156 4.664062 4.664062 4.464844 C 5.199219 3.671875 5.859375 2.957031 6.640625 2.359375 Z M 9 19.601562 L 9 20 L 8.601562 20 L 8.601562 18.398438 L 7.800781 18.398438 L 7.800781 20 L 7.398438 20 L 7.398438 19.601562 L 6.601562 19.601562 L 6.601562 20 L 6.246094 20 C 5.3125 18.878906 4.742188 17.378906 4.625 15.792969 C 4.824219 15.84375 5.023438 15.871094 5.21875 15.894531 C 5.457031 15.929688 5.6875 15.957031 5.921875 16.03125 C 8.027344 16.671875 9.386719 17.980469 10.070312 20 L 9.800781 20 L 9.800781 19.601562 Z M 6.152344 15.265625 C 5.855469 15.171875 5.574219 15.136719 5.324219 15.101562 C 5.03125 15.0625 4.769531 15.027344 4.542969 14.921875 C 4.539062 14.914062 4.539062 14.910156 4.535156 14.902344 C 4.457031 14.699219 4.3125 14.429688 4.082031 14.019531 C 3.871094 13.636719 3.570312 13.089844 3.480469 12.800781 C 3.464844 12.753906 3.457031 12.714844 3.453125 12.683594 C 3.445312 12.621094 3.4375 12.5625 3.433594 12.503906 C 4.097656 13.429688 5.085938 14.101562 6.386719 14.5 C 9.167969 15.347656 10.972656 17.199219 11.753906 20 L 10.921875 20 C 10.191406 17.597656 8.585938 16.007812 6.152344 15.265625 Z M 13.449219 20 C 14.230469 17.199219 16.03125 15.347656 18.8125 14.5 C 20.113281 14.101562 21.101562 13.429688 21.765625 12.5 C 21.761719 12.5625 21.753906 12.621094 21.746094 12.683594 C 21.726562 12.957031 21.191406 13.75 20.964844 14.089844 C 20.832031 14.289062 20.742188 14.421875 20.683594 14.523438 C 20.144531 14.847656 19.59375 15.097656 19.046875 15.265625 C 16.613281 16.007812 15.007812 17.597656 14.277344 20 Z M 18.601562 20 L 18.601562 19.601562 L 17.800781 19.601562 L 17.800781 20 L 17.398438 20 L 17.398438 18.398438 L 16.601562 18.398438 L 16.601562 20 L 16.199219 20 L 16.199219 19.601562 L 15.398438 19.601562 L 15.398438 20 L 15.128906 20 C 15.8125 17.980469 17.171875 16.671875 19.277344 16.03125 C 19.71875 15.894531 20.15625 15.710938 20.585938 15.488281 C 20.527344 17.1875 19.945312 18.808594 18.953125 20 Z M 12.601562 23.199219 C 11.988281 23.199219 10.804688 22.976562 9.519531 22.398438 L 15.679688 22.398438 C 14.394531 22.976562 13.210938 23.199219 12.601562 23.199219 Z M 12.601562 23.199219"/>
    <path d="M14.601562 13.199219C13.9375 13.199219 13.398438 13.738281 13.398438 14.398438L14.199219 14.398438C14.199219 14.179688 14.378906 14 14.601562 14 14.820312 14 15 14.179688 15 14.398438L15.800781 14.398438C15.800781 13.738281 15.261719 13.199219 14.601562 13.199219zM12.601562 15.199219C11.9375 15.199219 11.398438 15.738281 11.398438 16.398438L12.199219 16.398438C12.199219 16.179688 12.378906 16 12.601562 16 12.820312 16 13 16.179688 13 16.398438L13.800781 16.398438C13.800781 15.738281 13.261719 15.199219 12.601562 15.199219zM10.601562 13.199219C9.9375 13.199219 9.398438 13.738281 9.398438 14.398438L10.199219 14.398438C10.199219 14.179688 10.378906 14 10.601562 14 10.820312 14 11 14.179688 11 14.398438L11.800781 14.398438C11.800781 13.738281 11.261719 13.199219 10.601562 13.199219zM10.601562 13.199219"/>
</svg>

<svg xmlns="http://www.w3.org/2000/svg" width="32" height="32" viewBox="0 0 24 24">
    <path d="M16.602 5.2A2.803 2.803 0 0 0 13.8 8c0 1.543 1.254 2.8 2.8 2.8A2.802 2.802 0 0 0 19.399 8c0-1.543-1.253-2.8-2.796-2.8zm0 4.8c-1.106 0-2-.898-2-2 0-1.102.894-2 2-2 1.101 0 2 .898 2 2 0 1.102-.899 2-2 2zm0 0"/>
    <path d="M17.8 8a1.2 1.2 0 1 1-1.2-1.2c.662 0 1.2.536 1.2 1.2zm0 0M8.602 10.8A2.802 2.802 0 0 0 11.398 8c0-1.543-1.253-2.8-2.796-2.8A2.803 2.803 0 0 0 5.8 8c0 1.543 1.254 2.8 2.8 2.8zm0-4.8c1.101 0 2 .898 2 2 0 1.102-.899 2-2 2-1.106 0-2-.898-2-2 0-1.102.894-2 2-2zm0 0"/>
    <path d="M9.8 8a1.2 1.2 0 1 1-1.2-1.2c.662 0 1.2.536 1.2 1.2zm0 0"/>
    <path d="M22.602 20h-2.653c.926-1.34 1.45-3.04 1.45-4.766.023-.117.253-.527.417-.828.356-.644.61-1.117.696-1.472 0-.004 0-.008.004-.012.011-.059.023-.117.027-.172.05-.598.137-1.2.223-1.766.039-.261.066-.523.086-.785.003-.07.007-.136.007-.207.012-.207.016-.414.012-.617v-.184a10.2 10.2 0 0 0-.187-1.62c-.004-.008-.004-.016-.008-.024a8.846 8.846 0 0 0-.192-.785c-.007-.02-.011-.04-.02-.055a9.903 9.903 0 0 0-1.03-2.324c-.004-.004-.008-.008-.008-.012h-.004a9.659 9.659 0 0 0-2.375-2.64L16.902.081a.411.411 0 0 0-.441-.031l-2.39 1.34a3.794 3.794 0 0 0-1.47 1.48 3.811 3.811 0 0 0-1.468-1.476L8.738.05a.397.397 0 0 0-.437.031l-2.145 1.64a9.81 9.81 0 0 0-2.379 2.645c-.004.004-.004.008-.007.012a9.757 9.757 0 0 0-1.247 3.164c-.003.008-.003.016-.007.023a9.763 9.763 0 0 0-.184 1.622c-.004.062-.004.12-.004.183-.004.207 0 .41.012.617.004.07.004.14.008.211.02.262.047.524.086.785.086.563.171 1.168.222 1.766.004.05.016.11.028.168l.011.035c.012.047.024.09.04.14.144.434.46 1.028.828 1.688.085.156.183.336.238.446.004 1.746.527 3.437 1.449 4.773H.2v.8h6.402v.4h.796v-.4h.403v.4h.8v-.4H9v.4h.8v-.4h5.598v.4h.801v-.4h.403v.4h.796v-.4h.403v.4h.8v-.4h4a.398.398 0 1 1 0 .798H.2v.8h7.633C9.578 23.496 11.52 24 12.602 24c1.078 0 3.02-.504 4.765-1.602h5.235c.66 0 1.199-.539 1.199-1.199S23.26 20 22.6 20zm-10.024 0c-.824-3.2-2.824-5.309-5.957-6.266-1.39-.425-2.367-1.195-2.898-2.289-.95-1.957-.243-4.433-.016-5.113.066-.172.129-.344.203-.508.004-.004.004-.008.004-.008.102-.222.211-.445.328-.66.285.278.41.68.336 1.07A4.336 4.336 0 0 0 4.2 8a4.406 4.406 0 0 0 6.5 3.867l1.617 1.617a.399.399 0 0 0 .567 0l1.617-1.617A4.403 4.403 0 0 0 21 8c0-.629-.137-1.227-.375-1.77-.074-.394.05-.793.332-1.07.117.215.227.434.328.656.004.004.004.008.008.016.074.168.137.336.203.508.23.691.926 3.148-.02 5.105-.527 1.094-1.503 1.864-2.898 2.29-3.133.956-5.133 3.066-5.957 6.265zM5.266 6.723c.023-.067.039-.137.058-.203a3.6 3.6 0 0 1 3.278-2.122A3.604 3.604 0 0 1 12.199 8c0 .473-.094.926-.261 1.34v.004a3.616 3.616 0 0 1-.239.476l-.023.043c-.184.301-.41.575-.672.809-.008.008-.02.015-.027.023-.133.121-.278.23-.434.328v.004a3.595 3.595 0 0 1-1.941.575A3.605 3.605 0 0 1 5 8c0-.453.09-.887.242-1.285zm14.613-.2c.016.067.031.133.055.2l.023-.012c.156.402.242.836.242 1.289a3.604 3.604 0 0 1-3.597 3.602 3.598 3.598 0 0 1-1.946-.575 3.346 3.346 0 0 1-.46-.355 3.613 3.613 0 0 1-.673-.809L13.5 9.82a3.616 3.616 0 0 1-.238-.476V9.34A3.545 3.545 0 0 1 13 8a3.6 3.6 0 0 1 3.598-3.598 3.595 3.595 0 0 1 3.28 2.121zm-8.137 4.551c.008-.008.016-.02.024-.027.101-.106.195-.215.285-.328l.07-.09c.074-.098.145-.2.211-.305.02-.031.04-.062.055-.097.07-.118.133-.235.191-.36.008-.015.016-.027.024-.039a3.946 3.946 0 0 0 .27.492c.066.11.136.211.21.309a3.91 3.91 0 0 0 .355.422c.004.008.012.015.02.023.117.117.238.23.367.336l-1.222 1.223-1.227-1.223c.129-.105.254-.219.367-.336zM6.641 2.36L8.578.88l2.164 1.21a3.001 3.001 0 0 1 1.41 1.782c-.015.055-.015.102-.015.121 0 .063.023.375.433.406.02.004.04.004.063 0 .406-.03.43-.343.433-.406a.486.486 0 0 0-.02-.12 2.996 2.996 0 0 1 1.415-1.782L16.625.879l1.938 1.484a8.937 8.937 0 0 1 1.976 2.106c-.246.199-.43.445-.555.722a4.386 4.386 0 0 0-3.382-1.59 4.399 4.399 0 0 0-4 2.575 4.395 4.395 0 0 0-7.383-.988 1.953 1.953 0 0 0-.555-.723 8.937 8.937 0 0 1 1.977-2.106zM9 19.602V20h-.398v-1.602H7.8V20h-.403v-.398h-.796V20h-.356c-.934-1.121-1.504-2.621-1.621-4.207.2.05.398.078.594.102.238.035.468.062.703.136 2.105.64 3.465 1.95 4.148 3.969H9.8v-.398zm-2.848-4.336c-.297-.094-.578-.13-.828-.164-.293-.04-.554-.075-.781-.18l-.008-.02c-.078-.203-.223-.472-.453-.882-.21-.383-.512-.93-.602-1.22a.608.608 0 0 1-.027-.116c-.008-.063-.015-.121-.02-.18.665.926 1.653 1.598 2.954 1.996 2.781.848 4.586 2.7 5.367 5.5h-.832c-.73-2.402-2.336-3.992-4.77-4.734zM13.45 20c.781-2.8 2.582-4.652 5.364-5.5 1.3-.398 2.289-1.07 2.953-2-.004.063-.012.121-.02.184-.02.273-.555 1.066-.781 1.406-.133.2-.223.332-.281.433a7.42 7.42 0 0 1-1.637.743c-2.434.742-4.04 2.332-4.77 4.734zm5.153 0v-.398H17.8V20h-.403v-1.602h-.796V20h-.403v-.398h-.8V20h-.27c.684-2.02 2.043-3.328 4.148-3.969.442-.136.88-.32 1.309-.543-.059 1.7-.64 3.32-1.633 4.512zm-6 3.2c-.614 0-1.797-.223-3.082-.802h6.16c-1.285.579-2.47.801-3.078.801zm0 0"/>
    <path d="M14.602 13.2c-.665 0-1.204.538-1.204 1.198h.801a.401.401 0 0 1 .801 0h.8c0-.66-.538-1.199-1.198-1.199zm0 0M12.602 15.2c-.665 0-1.204.538-1.204 1.198h.801a.401.401 0 0 1 .801 0h.8c0-.66-.538-1.199-1.198-1.199zm0 0M10.602 13.2c-.665 0-1.204.538-1.204 1.198h.801a.401.401 0 0 1 .801 0h.8c0-.66-.538-1.199-1.198-1.199zm0 0"/>
</svg>
